X:1
T:Title
%%score { 1 | 2 }
L:1/8
M:4/4
K:G
V:1 treble nm="Grand Piano"
V:2 bass 
V:1
 z4 z2[Q:1/4=100] D>D | G<G G>G [GB]2 A2 | A G3- G z G>A | B<B B>B [Bd]2 [GB]2 | [FA]6 B>c | %5
 dddd B2 [FA][EG] | [EG][EG][EG][EG] [Ec]2 E>E | D<D GG B2 A2 |[M:3/4] [G,B,G]6 | %9
[M:4/4] [DBd]3 [DGB] [DBd]<[DGB] [B,G]>[CGA] | [DGB]2 [CFA]2 [B,G]4 | [DBd]3 [DGB] [DBd]<B G>A | %12
 B2 B2 [FA]4 | BBBB [Ec] [Ec]2 [Ec] | [EG^c][EGc][EGc][Gc] [Fd] .[Fd]3 | d3 e d<B [DG]>[EGA] | %16
 [DGB]2 [CDA]2 [B,DG]4 |] %17
V:2
 z4 z2 [G,B,]>[G,B,] | [G,B,D]<[G,B,D] [G,B,D]>[G,B,D] [D,D]2 [D,CD]2 | %2
 [G,CD] [G,B,D]3- [G,B,D] z [G,B,]>[K:treble][G,CG] | %3
 [G,DG]<[G,DG] [G,DG]>[G,DG][K:bass] [G,D]2 [G,D]2 | [D,D]6[K:treble] [G,G]>[G,A,A] | %5
 [G,B,G][G,B,G][G,B,G][G,B,G] [G,DG]2[K:bass] [D,C][E,B,] | %6
 [C,C][C,C][C,C][C,C] [C,G,]2 [C,G,C]>[C,G,C] | %7
 [D,G,B,]<[D,G,B,] [D,G,B,][D,G,B,] [D,G,D]2 [D,F,C]2 |[M:3/4] G,,6 |[M:4/4] G,3 G, G,<G, G,>G, | %10
 D,2 D,2 G,4 | G,3 G, G,<[K:treble][G,DG] [G,B,]>[G,CG] | [G,DG]2 [G,DG]2 [D,D]4 | %13
 [G,DG][G,DG][G,DG][G,G][K:bass] [C,G,] [C,G,]2 [C,G,] | A,,A,,A,,[A,,A,] [D,A,] .[D,A,]3 | %15
 [G,B,G]3 [G,CG] [G,B,G]<[G,DG][K:bass] B,,>C, | D,2 D,2 G,,4 |] %17

